X: 347
T: Zhangang fangshao
%%abc-version 2.0
%%abcx-abcm2ps-target-version 5.9.1 (29 Sep 2008)
%%abc-creator hum2abc beta
%%abcx-conversion-date 2013/10/02 07:52:30
%%abc-edited-by Helmut Schaffrath
%%humdrum-veritas 796764372
%%humdrum-veritas-data 100082728
%%continueall 1
%%barnumbers 0
L: 1/8
M: 2/4
K: F
z2c c [I:setbarnb 1]| 
A c f d/ c/ | 
A c/ f/ d c/ A/ | 
G> AG2 | 
c A f d/ c/ | 
A c F D | 
A A/ c/ G/ F D/ | 
C> FC2 |]  



